resources/haticons/SVG/format_list_numbered.svg

<!-- Generated by IcoMoon.io -->
<svg version="1.1" xmlns="http://www.w3.org/2000/svg" width="24" height="24" viewBox="0 0 24 24">
<title>format_list_numbered</title>
<path d="M6.984 12.984v-1.969h14.016v1.969h-14.016zM6.984 18.984v-1.969h14.016v1.969h-14.016zM6.984 5.016h14.016v1.969h-14.016v-1.969zM2.016 11.016v-1.031h3v0.938l-1.828 2.063h1.828v1.031h-3v-0.938l1.781-2.063h-1.781zM3 8.016v-3h-0.984v-1.031h1.969v4.031h-0.984zM2.016 17.016v-1.031h3v4.031h-3v-1.031h1.969v-0.469h-0.984v-1.031h0.984v-0.469h-1.969z"></path>
</svg>

<svg xmlns="http://www.w3.org/2000/svg" width="24" height="24"><path d="M6.984 12.984v-1.969H21v1.969H6.984zm0 6v-1.969H21v1.969H6.984zm0-13.968H21v1.969H6.984V5.016zm-4.968 6V9.985h3v.938l-1.828 2.063h1.828v1.031h-3v-.938l1.781-2.063H2.016zm.984-3v-3h-.984V3.985h1.969v4.031h-.984zm-.984 9v-1.031h3v4.031h-3v-1.031h1.969v-.469h-.984v-1.031h.984v-.469H2.016z"/></svg>
